X: 1
T: the Big Mule
O: W.L. "Jake" Phelps, Kentucky
R: reel
Z: 2010 John Chambers <jc:trillian.mit.edu>
F: http://www.abbamoses.com/fiddledo/bigmule.pdf
N: A crooked variation on another tune called 'Dubuque' or 'Old Dubuque' or 'Duck River'.
M: C|
L: 1/8
K: D
DB, |\
A,B,D2 D2D2- | DFA2 BAAA | ABAB A2FG | ABAF EDB,D |
A,B,D2 D2D2- | DFA2 BAFA | AFA2 BcdB | AFEF D2   :|
fe |\
d2Bd d2d2 | (3BdB AB d2d2 | [M:3/2] fafe d2Bd d2d2 |[M:C|] BdAF D4 ||
|: fefa aba2 | afdf ed[d2D2] | fefa b2b2 | afdf ed[d2D2] |
   fefa aba2 | afdf ed[d2D2] | BABA BcdB | AFEF [1 D2 [A2C2] :|[2 D2 :|
